Numix/48/categories/preferences-desktop-accessibility.svg

<?xml version="1.0" encoding="UTF-8" standalone="no"?>
<!-- Created with Inkscape (http://www.inkscape.org/) -->

<svg
   xmlns:dc="http://purl.org/dc/elements/1.1/"
   xmlns:cc="http://creativecommons.org/ns#"
   xmlns:rdf="http://www.w3.org/1999/02/22-rdf-syntax-ns#"
   xmlns:svg="http://www.w3.org/2000/svg"
   xmlns="http://www.w3.org/2000/svg"
   xmlns:sodipodi="http://sodipodi.sourceforge.net/DTD/sodipodi-0.dtd"
   xmlns:inkscape="http://www.inkscape.org/namespaces/inkscape"
   version="1.0"
   width="48"
   height="48"
   id="svg3366"
   inkscape:version="0.91 r"
   sodipodi:docname="preferences-desktop-accessibility.svg">
  <metadata
     id="metadata30">
    <rdf:RDF>
      <cc:Work
         rdf:about="">
        <dc:format>image/svg+xml</dc:format>
        <dc:type
           rdf:resource="http://purl.org/dc/dcmitype/StillImage" />
      </cc:Work>
    </rdf:RDF>
  </metadata>
  <sodipodi:namedview
     pagecolor="#ffffff"
     bordercolor="#666666"
     borderopacity="1"
     objecttolerance="10"
     gridtolerance="10"
     guidetolerance="10"
     inkscape:pageopacity="0"
     inkscape:pageshadow="2"
     inkscape:window-width="1920"
     inkscape:window-height="1056"
     id="namedview28"
     showgrid="true"
     inkscape:zoom="11.313709"
     inkscape:cx="16.50834"
     inkscape:cy="13.036372"
     inkscape:window-x="0"
     inkscape:window-y="24"
     inkscape:window-maximized="1"
     inkscape:current-layer="svg3366">
    <inkscape:grid
       type="xygrid"
       id="grid4158" />
  </sodipodi:namedview>
  <defs
     id="defs3368" />
  <path
     style="fill:#698ecc;fill-opacity:1;stroke:none;stroke-width:1.003654;stroke-linecap:round;stroke-linejoin:round;stroke-miterlimit:4;stroke-dasharray:none;stroke-dashoffset:0;stroke-opacity:1"
     d="M 24 4 C 12.96469 4 4 12.964689 4 24 C 4 35.03531 12.96469 44.000003 24 44 C 35.035306 44 44.00001 35.03531 44 24 C 44 12.964689 35.035306 4 24 4 z M 24.138672 11 C 25.745349 11 27.048828 12.333145 27.048828 13.976562 C 27.048828 15.619972 25.745349 16.955078 24.138672 16.955078 C 22.531997 16.955078 21.226562 15.619973 21.226562 13.976562 C 21.226562 12.333146 22.531997 11 24.138672 11 z M 13.650391 17.089844 C 13.800662 17.095384 13.954576 17.124854 14.111328 17.152344 L 24 18.886719 L 33.929688 17.224609 C 34.064123 17.202099 34.177878 17.164838 34.3125 17.142578 C 34.697751 17.098794 35.075375 17.310545 35.212891 17.671875 C 35.350401 18.033161 35.213966 18.45194 34.896484 18.673828 L 27.140625 21.355469 L 27.144531 27.044922 L 29.828125 35.726562 C 30.062213 36.134865 29.919412 36.653407 29.509766 36.886719 C 29.100118 37.120015 28.577849 36.978615 28.34375 36.570312 L 24.015625 27.255859 L 19.601562 36.587891 C 19.338194 36.981591 18.777828 37.061303 18.382812 36.798828 C 17.987807 36.536396 17.908533 36.030363 18.171875 35.636719 L 20.90625 26.992188 L 20.958984 21.21875 L 13.210938 18.705078 C 12.928848 18.557295 12.728622 18.284387 12.732422 17.966797 C 12.736365 17.649251 12.925301 17.314623 13.210938 17.173828 C 13.353753 17.103428 13.500119 17.084304 13.650391 17.089844 z "
     id="path2555" />
</svg>

<!-- Created with Inkscape (http://www.inkscape.org/) -->
<svg xmlns="http://www.w3.org/2000/svg" viewBox="0 0 48 48">
 <path d="m 24 4 c -11.04 0 -20 8.965 -20 20 c 0 11.04 8.965 20 20 20 c 11.04 0 20 -8.965 20 -20 c 0 -11.04 -8.965 -20 -20 -20 z m 0.139 7 c 1.607 0 2.91 1.333 2.91 2.977 c 0 1.643 -1.303 2.979 -2.91 2.979 c -1.607 0 -2.912 -1.335 -2.912 -2.979 c 0 -1.643 1.305 -2.977 2.912 -2.977 z m -10.488 6.09 c 0.15 0.006 0.304 0.035 0.461 0.063 l 9.889 1.734 l 9.93 -1.662 c 0.134 -0.023 0.248 -0.06 0.383 -0.082 c 0.385 -0.044 0.763 0.168 0.9 0.529 c 0.138 0.361 0.001 0.78 -0.316 1 l -7.756 2.682 l 0.004 5.689 l 2.684 8.682 c 0.234 0.408 0.091 0.927 -0.318 1.16 c -0.41 0.233 -0.932 0.092 -1.166 -0.316 l -4.328 -9.314 l -4.414 9.332 c -0.263 0.394 -0.824 0.473 -1.219 0.211 c -0.395 -0.262 -0.474 -0.768 -0.211 -1.162 l 2.734 -8.645 l 0.053 -5.773 l -7.748 -2.514 c -0.282 -0.148 -0.482 -0.421 -0.479 -0.738 c 0.004 -0.318 0.193 -0.652 0.479 -0.793 c 0.143 -0.07 0.289 -0.09 0.439 -0.084 z" style="fill:#698ecc;fill-opacity:1;stroke:none"/>
</svg>
